X: 1
T: Candles in the Dark   (Dm)
C: Jonathan Jensen 2004
R: waltz
Z: 2007 John Chambers <jc:trillian.mit.edu>
S: Printed page labelled "22 Loretta Holz" at bottom
S: http://dickatlee.com/misc/fv/centennial/music/pdfs/candles_in_the_dark.pdf
M: 3/4
L: 1/8
K: Dm
|: "Dm"Dd cA "Gm"GE | "Dm"F2 D4 |  "Dm"Dd cA "Gm"GE | "A"A6 \
|  "Dm"Dd cA "Gm"GF | "C"E2 C2 DE | "Bb"F3 E DC | "Dm"A,2 D4 :|
[| "Bb"F3 D "C"GE | "Dm"F3 D "C"EC | "Bb"DC DE FG | "F"A3 c AF \
|  "C"E3 A "Dm"FD | "Am"C3 F "Bb"DB, | "Gm"G,A, B,C DE | "Dm"F2 D4 |]
[| "Bb"F3 D "C"GE | "Dm"F3 D "C"EC | "Bb"DC DE FG | "F"A3 c AF \
|  "C"GE C"Dm"A FD | "Am"EC A,"Bb"F DB, | "Gm"G,A, B,C DE | "Dm"F2 D4 |]
